X: 316
T:The Caspice of Polkary Pipers
% Nottingham Music Database
P:AABCCDD
S:Kevin Brignty, via EF
M:6/8
K:A
P:A
G/2A/2|"E"e3 -"f#"f2f|"E"e3 -"E7"dBd|"A"c2c cBA|"Bm"ceB "E7"AB^c|"A"a2e a2e|"D"f3 a2d|
"A"c2c Ace|"E7"GFG "A7"e2A|"D"FED A3|\
B3 AGF-||

